images/choose-bg-4.svg

<svg width="424" height="434" viewBox="0 0 424 434" fill="none" xmlns="http://www.w3.org/2000/svg">
<path d="M423 2H1V431.5H347L423 306V2Z" fill="black" fill-opacity="0.5"/>
<path d="M0 0V434H348.502C349.158 432.999 349.814 431.998 350.471 430.998C381.647 383.46 392.824 355.922 424 308.385V0H0ZM422.031 44.5353C420.718 42.5337 419.077 40.0317 417.765 38.0301V54.0428L422.031 60.5479V63.5503L417.765 57.0452V73.0578L422.031 79.563V307.384C390.526 355.422 379.022 383.46 347.517 431.498H214.954L210.687 424.993H200.186L204.452 431.498H202.483L198.217 424.993H187.715L191.981 431.498H189.684L185.418 424.993H174.916L179.183 431.498H177.214L172.947 424.993H162.446L166.712 431.498H52.1796L47.9133 424.993H37.4118L41.678 431.498H39.3808L35.1146 424.993H24.613L28.8793 431.498H26.582L2.29721 394.469V390.466C3.60991 392.467 5.25077 394.969 6.56347 396.971V380.958L2.29721 374.453V371.45L6.23529 377.455V361.443L1.96904 354.937V38.5305L25.2693 3.00238H209.046L213.313 9.50753H223.814L219.876 3.00238H221.845L226.111 9.50753H236.613L232.347 3.00238H234.644L238.91 9.50753H249.412L245.146 3.00238H247.115L251.381 9.50753H261.882L257.616 3.00238H372.149L376.415 9.50753H386.916L382.65 3.00238H384.619L388.885 9.50753H399.387L395.121 3.00238H398.731L422.031 38.5305V44.5353Z" fill="url(#paint0_linear_2133_191)"/>
<defs>
<linearGradient id="paint0_linear_2133_191" x1="-94.7535" y1="14.3722" x2="238.964" y2="649.18" gradientUnits="userSpaceOnUse">
<stop stop-color="white"/>
<stop offset="0.1685" stop-color="#5E5E5E"/>
<stop offset="0.2637" stop-color="#DEDEDE"/>
<stop offset="0.3956" stop-color="#8E8E8E"/>
<stop offset="0.5421" stop-color="#636363"/>
<stop offset="0.6264" stop-color="#5F5F5F"/>
<stop offset="0.7179" stop-color="#EAEAEA"/>
<stop offset="0.7912" stop-color="white"/>
<stop offset="1" stop-color="#454545"/>
</linearGradient>
</defs>
</svg>

<svg width="424" height="434" fill="none" xmlns="http://www.w3.org/2000/svg"><path d="M423 2H1v429.5h346L423 306V2z" fill="#000" fill-opacity=".5"/><path d="M0 0v434h348.502l1.969-3.002c31.176-47.538 42.353-75.076 73.529-122.613V0H0zm422.031 44.535a24122.79 24122.79 0 01-4.266-6.505v16.013l4.266 6.505v3.002l-4.266-6.505v16.013l4.266 6.505v227.821c-31.505 48.038-43.009 76.076-74.514 124.114H214.954l-4.267-6.505h-10.501l4.266 6.505h-1.969l-4.266-6.505h-10.502l4.266 6.505h-2.297l-4.266-6.505h-10.502l4.267 6.505h-1.969l-4.267-6.505h-10.501l4.266 6.505H52.18l-4.267-6.505H37.412l4.266 6.505h-2.297l-4.266-6.505H24.613l4.266 6.505h-2.297L2.297 394.469v-4.003l4.266 6.505v-16.013l-4.266-6.505v-3.003l3.938 6.005v-16.012l-4.266-6.506V38.531l23.3-35.529h183.777l4.267 6.506h10.501l-3.938-6.506h1.969l4.266 6.506h10.502l-4.266-6.506h2.297l4.266 6.506h10.502l-4.266-6.506h1.969l4.266 6.506h10.501l-4.266-6.506h114.533l4.266 6.506h10.501l-4.266-6.506h1.969l4.266 6.506h10.502l-4.266-6.506h3.61l23.3 35.529v6.004z" fill="url(#paint0_linear_2133_191)"/><defs><linearGradient id="paint0_linear_2133_191" x1="-94.754" y1="14.372" x2="238.964" y2="649.18" gradientUnits="userSpaceOnUse"><stop stop-color="#fff"/><stop offset=".169" stop-color="#5E5E5E"/><stop offset=".264" stop-color="#DEDEDE"/><stop offset=".396" stop-color="#8E8E8E"/><stop offset=".542" stop-color="#636363"/><stop offset=".626" stop-color="#5F5F5F"/><stop offset=".718" stop-color="#EAEAEA"/><stop offset=".791" stop-color="#fff"/><stop offset="1" stop-color="#454545"/></linearGradient></defs></svg>
